X:1
T:I Would Not Be Denied
T:I Would Not Be Denied
T:Charles Price Jones
T:Charles Price Jones, 1901
T:Public Domain Courtesy of the Cyber Hymnal™
C:Charles Price Jones
Z:Public Domain
Z:Courtesy of the Cyber Hymnal™
%%score ( 1 2 ) ( 3 4 )
L:1/8
Q:1/4=125
M:4/4
K:C
V:1 treble 
V:2 treble 
V:3 bass 
V:4 bass 
V:1
 (CE) | [EG]2 [EG]2 [EG]2 [FA]2 | [EG]2 [CE]2 [CE]2 C2 | [B,D]2 [B,D]2 C2 [B,D]2 | [CE]6 (CE) | %5
w: 1.~When *|pangs of death seized|on my soul, Un-|to the Lord I|cried; Till *|
w: 2.~As *|Ja- cob in the|days of old, I|wres- tled with the|Lord; And *|
w: 3.~Old *|Sa- tan said my|Lord was gone And|would not hear my|prayer; But *|
 [EG]2 [EG]2 [EG]2 [FA]2 | [EG]2 [CE]2 [CE]2 C2 | [B,D]2 [B,D]2 [B,E]2 [B,D]2 | C6 || %9
w: Je- sus came and|made me whole, I|would not be de-|nied.|
w: in- stant, with a|cour- age bold, I|stood up- on His|Word.|
w: praise the Lord, the|work is done, And|Christ the Lord is|here.|
"^Refrain" G2 | [Ec]2 [Ec]2 [Ec]2 [Ge]2 | [Ec]4- [Ec]2 [EG]2 | [FA]2 [FA]2 [Fc]2 [FA]2 | %13
w: I|would not be de-|nied, * I|would not be de-|
w: ||||
w: ||||
 [EG]4- [EG]2 [EG]2 | [Ec]2 [Ec]2 [Ec]2 [FA]2 | [EG]2 [CE]2 [CE]2 C2 | %16
w: nied, * Till|Je- sus came and|made me whole, I|
w: |||
w: |||
 [B,D]2 [B,D]2 [B,E]2 [B,D]2 | C4- [G,C]2 |] %18
w: would not be de-|nied. *|
w: ||
w: ||
V:2
 C2 | x8 | x6 C2 | x4 C2 x2 | x6 C2 | x8 | x6 C2 | x8 | C6 || G2 | x8 | x8 | x8 | x8 | x8 | x6 C2 | %16
 x8 | C2 A,2 x2 |] %18
V:3
 (E,G,) | [C,C]2 [C,C]2 [C,C]2 [C,C]2 | [C,C]2 [C,G,]2 [C,G,]2 [C,E,]2 | %3
w: ~ *|~ ~ ~ ~|~ ~ ~ ~|
 [G,,F,]2 [G,,F,]2 [G,,F,]2 [G,,G,]2 | [C,G,]6 (E,G,) | [C,C]2 [C,C]2 [C,C]2 [C,C]2 | %6
w: ~ ~ ~ ~|~ ~ *|~ ~ ~ ~|
 [C,C]2 [C,G,]2 [C,G,]2 [C,E,]2 | [G,,F,]2 [G,,F,]2 [G,,G,]2 [G,,F,]2 | [C,E,]6 || G,2 | %10
w: ~ ~ ~ ~|~ ~ ~ ~|~|~|
 [C,G,]2 [C,G,]2 [C,G,]2 [C,C]2 | [C,G,]2 [C,G,]2 [C,G,]2 [C,C]2 | [F,C]2 [F,C]2 [F,A,]2 [F,C]2 | %13
w: ~ ~ ~ ~|~ de- nied, ~|~ ~ ~ ~|
 [C,C]2 [C,C]2 [C,C]2 [C,C]2 | [C,G,]2 [C,G,]2 [C,G,]2 [C,C]2 | [C,C]2 [C,G,]2 [C,G,]2 [C,E,]2 | %16
w: ~ de- nied, ~|~ ~ ~ ~|~ ~ ~ ~|
 [G,,F,]2 [G,,F,]2 [G,,G,]2 [G,,F,]2 | E,2 F,2 [C,E,]2 |] %18
w: ~ ~ ~ ~|~ denied. *|
V:4
 C,2 | x8 | x8 | x8 | x6 C,2 | x8 | x8 | x8 | x6 || G,2 | x8 | x8 | x8 | x8 | x8 | x8 | x8 | %17
 C,4- x2 |] %18

